icons/file_type_protractor.svg

<svg xmlns="http://www.w3.org/2000/svg" viewBox="0 0 32 32"><path d="M30 16A14 14 0 1 1 16 2a14 14 0 0 1 14 14" style="fill:#ed163a"/><path d="M23.227 9.243 18.465 9.2l-2.783-2.784-3.268 2.17.564.564-1.324-.012L7.16 16.7H5.4l1.1 1.106-1.111 1.875L15.7 29.992h.3a14 14 0 0 0 14-13.98l-6.773-6.769" style="fill:#d51c2f"/><path d="M9.1 17.019a6.9 6.9 0 0 1 13.794 0Zm15.5.318V16.7h2a10.567 10.567 0 0 0-2.88-6.954l-1.491 1.491-.45-.451L23.272 9.3a10.567 10.567 0 0 0-6.954-2.88v1.991h-.636v-2A10.564 10.564 0 0 0 8.728 9.3l1.491 1.491-.451.45-1.491-1.495A10.566 10.566 0 0 0 5.4 16.7h1.992v.636h-2v2.335h21.219v-2.334h-2" style="fill:#f5f5f5"/></svg>

<svg xmlns="http://www.w3.org/2000/svg" viewBox="0 0 32 32"><title>file_type_protractor</title><path d="M30,16A14,14,0,1,1,16,2,14,14,0,0,1,30,16" style="fill:#ed163a"/><path d="M23.227,9.243,18.465,9.2,15.682,6.416l-3.268,2.17.564.564-1.324-.012L7.16,16.7H5.4l1.1,1.106L5.389,19.681,15.7,29.992H16a14,14,0,0,0,14-13.98L23.227,9.243" style="fill:#d51c2f"/><path d="M9.1,17.019a6.9,6.9,0,0,1,13.794,0Zm15.5.318V16.7h2a10.567,10.567,0,0,0-2.88-6.954l-1.491,1.491-.45-.451L23.272,9.3a10.567,10.567,0,0,0-6.954-2.88V8.411h-.636v-2A10.564,10.564,0,0,0,8.728,9.3l1.491,1.491-.451.45L8.277,9.746A10.566,10.566,0,0,0,5.4,16.7H7.392v.636h-2v2.335H26.611V17.337h-2" style="fill:#f5f5f5"/></svg>
